assets/icons/qvision/phonelink_off.svg

<svg xmlns="http://www.w3.org/2000/svg" height="24" viewBox="0 0 24 24" width="24"><path d="M0 0h24v24H0zm0 0h24v24H0z" fill="none"/><path d="M22 6V4H6.82l2 2H22zM1.92 1.65L.65 2.92l1.82 1.82C2.18 5.08 2 5.52 2 6v11H0v3h17.73l2.35 2.35 1.27-1.27L3.89 3.62 1.92 1.65zM4 6.27L14.73 17H4V6.27zM23 8h-6c-.55 0-1 .45-1 1v4.18l2 2V10h4v7h-2.18l3 3H23c.55 0 1-.45 1-1V9c0-.55-.45-1-1-1z"/></svg>

<svg width="24" height="24" viewBox="0 0 24 24" fill="none" xmlns="http://www.w3.org/2000/svg">
<g clip-path="url(#clip0_147_3034)">
<path d="M22 6V4H6.82L8.82 6H22ZM1.92 1.65L0.65 2.92L2.47 4.74C2.18 5.08 2 5.52 2 6V17H0V20H17.73L20.08 22.35L21.35 21.08L3.89 3.62L1.92 1.65ZM4 6.27L14.73 17H4V6.27ZM23 8H17C16.45 8 16 8.45 16 9V13.18L18 15.18V10H22V17H19.82L22.82 20H23C23.55 20 24 19.55 24 19V9C24 8.45 23.55 8 23 8Z" fill="#323232"/>
</g>
<defs>
<clipPath id="clip0_147_3034">
<rect width="24" height="24" fill="white"/>
</clipPath>
</defs>
</svg>
